style/elvis/src/icons/svg/src/arrow-down.svg

<svg width="24" height="25" viewBox="0 0 24 25" fill="none" xmlns="http://www.w3.org/2000/svg">
<path fill-rule="evenodd" clip-rule="evenodd" d="M15.5351 12.1833C15.9254 12.5741 15.9254 13.2076 15.5351 13.5984L12.7067 16.43C12.3164 16.8208 11.6836 16.8208 11.2933 16.43L8.46487 13.5984C8.07457 13.2076 8.07457 12.5741 8.46487 12.1833C8.85517 11.7926 9.48797 11.7926 9.87827 12.1833L12 14.3075L14.1217 12.1833C14.512 11.7926 15.1448 11.7926 15.5351 12.1833Z" fill="black"/>
</svg>

<svg width="24" height="25" fill="none" xmlns="http://www.w3.org/2000/svg"><path fill-rule="evenodd" clip-rule="evenodd" d="M15.535 12.183c.39.391.39 1.025 0 1.415l-2.828 2.832a.999.999 0 01-1.414 0l-2.828-2.832a1.001 1.001 0 010-1.415.999.999 0 011.413 0L12 14.307l2.122-2.124a.999.999 0 011.413 0z" fill="#1B314B"/></svg>
